X:16
T:Amazone
I:last changed 14/2/2016
F:http://www.campin.me.uk/Music/Edinbal.abc
C:Cyrille Brotto
M:6/8
L:1/8
P:AABB
K:AMin
P:A
"Am"e3 edc|"F"c3 cde|"Dm"fed edc|[1 "Em"B3 Bcd:|\
                                 [2 "Em"B6    ||
P:B
"Am"A2 "G"B2 "F"c2|"Dm"d6|"G/e"eg ed cB|[1 "Am"c2 B2 A2:|\
                                        [2 "Am"A6      |]

